cast-education.svg

<svg  viewBox="0 0 24 24" fill="currentColor"><path  d="M21,3H3A2,2 0 0,0 1,5V8H3V5H21V19H14V21H21A2,2 0 0,0 23,19V5A2,2 0 0,0 21,3M1,18V21H4A3,3 0 0,0 1,18M1,14V16A5,5 0 0,1 6,21H8A7,7 0 0,0 1,14M1,10V12A9,9 0 0,1 10,21H12C12,14.92 7.07,10 1,10M11,11.09V13.09L14.5,15L18,13.09V11.09L14.5,13L11,11.09M14.5,6L9,9L14.5,12L20,9L14.5,6Z"/></svg>

<svg fill="currentColor" viewBox="0 0 24 24"><path d="M21 3H3a2 2 0 0 0-2 2v3h2V5h18v14h-7v2h7a2 2 0 0 0 2-2V5a2 2 0 0 0-2-2M1 18v3h3a3 3 0 0 0-3-3m0-4v2a5 5 0 0 1 5 5h2a7 7 0 0 0-7-7m0-4v2a9 9 0 0 1 9 9h2c0-6.08-4.93-11-11-11m10 1.09v2L14.5 15l3.5-1.91v-2L14.5 13zM14.5 6 9 9l5.5 3L20 9z"/></svg>
